src/icons/download.svg

<?xml version="1.0" encoding="UTF-8"?>
<svg id="export" xmlns="http://www.w3.org/2000/svg" width="24" height="24" viewBox="0 0 24 24">
  <defs>
    <style>
      .cls-1 {
        fill: #bb2649;
      }
    </style>
  </defs>
  <g id="icon_download">
    <path class="cls-1" d="m23.5,23H.5c-.28,0-.5-.22-.5-.5v-9c0-.28.22-.5.5-.5s.5.22.5.5v8.5h22v-8.5c0-.28.22-.5.5-.5s.5.22.5.5v9c0,.28-.22.5-.5.5Z"/>
    <path class="cls-1" d="m12.37,18.85l5.47-5.15c.21-.2.21-.51,0-.71s-.54-.2-.75,0l-4.56,4.29V1.5c0-.28-.24-.5-.53-.5-.15,0-.28.06-.38.15s-.16.22-.16.35v15.79l-4.56-4.29c-.21-.2-.54-.2-.75,0s-.21.51,0,.71l5.47,5.14c.21.2.54.2.75,0Z"/>
  </g>
</svg>

<svg id="export" xmlns="http://www.w3.org/2000/svg" width="24" height="24" viewBox="0 0 24 24"><defs><style>.cls-1{fill:#3c5583;}</style></defs><g id="icon_download"><path class="cls-1" d="M23.5,23H.5a.5.5,0,0,1-.5-.5v-9A.5.5,0,0,1,.5,13a.5.5,0,0,1,.5.5V22H23V13.5a.5.5,0,0,1,1,0v9A.5.5,0,0,1,23.5,23Z"/><path class="cls-1" d="M12.37,18.85l5.47-5.14a.48.48,0,0,0,0-.71.54.54,0,0,0-.75,0l-4.56,4.29V1.5A.51.51,0,0,0,12,1a.56.56,0,0,0-.38.15.49.49,0,0,0-.15.35V17.29L6.91,13a.56.56,0,0,0-.75,0,.48.48,0,0,0,0,.71l5.46,5.14A.54.54,0,0,0,12.37,18.85Z"/></g></svg>
